X:23
T:The Fairy Dance
Z:Jack Campin, 2006, http://www.campin.me.uk/
M:C|
L:1/8
Q:1/2=110
K:D
f2fd f2fd|f2fd cde2|f2fd gfed|cABc [1 d4  :|\
                                   [2 defg||
a2af b2ba|gfge a2ag|f2fd gfed|cABc [1 defg:|\
                                   [2 d4  |]

